X:4180
L:1/16
M:2/4
K:D
 A,2 | A,/A,/zB, D2>E2 | FEDE F<A z A |{c} BABc dcdB | AFDF EDB,2 | A,A,zB, D2>E2 | FEDE FAzA | 
{c} BABc dcdB | AFEF D2 z2 :: D2F2 AF z F | AFc2 E4 | E2G2 BGzG | BGe2 A4 | A2c2 ec z c | eca2 d4 | 
 A,2C2 EC z C | ECE2 D2 :: (3ABc | d2cd BdAd | BdAd BFzF | z A,B,2 D2>E2 | FEDF EB,zB, | 
 z B,B,2 D2>E2 | FEDE FFzA |{c} BABc dcdB | AFEF D2 :|

